X:1
T:Title
%%score { 1 | 2 }
L:1/8
Q:1/4=100
M:4/4
K:Db
V:1 treble nm="Grand Piano"
V:2 bass 
V:1
 [FA]2 [GB]>[Gc] [Fd]3 [DF] | [Ec][DB] [CA]>[CE] [EG]2 [DF]2 | [CE]2 [EA]>B c3 c | %3
w: Ira~D.~Sankey * * * *|||
 [Fd][Fd][DF][D=G] [CA]4 | A2 B>[Gc] [Fd]3 [A,FA] | [CAe]>[CA] [CA][CA] [Af]2 [Fd]2 | %6
w: |||
 B2 [Gc][Fd] [B,Ac][DGB][B,FA][=A,EG] | [A,DF]2[K:bass] [G,CE]2 [F,D]4 |] %8
w: ||
V:2
 [D,D]2 [G,D]>[E,A,] [D,A,]3 [D,A,] | [A,,A,][A,,A,] [A,,A,]>[A,,A,] [C,A,]2 [D,A,]2 | %2
 [A,,A,]2 [C,A,]>[E,=G,E] [A,E]3 [A,E] | [D,A,][B,,B,][E,B,][E,B,] [A,,A,]4 | %4
 [D,F,D]2 [G,D]>[E,A,] [D,A,]3 D, | A,,>A,, A,,A,, [D,D]2 [D,A,]2 | %6
 [G,D]2 [E,A,][D,A,] G,,G,,G,,G,, | A,,2 A,,2 D,4 |] %8

